icons/1_Primary/Parsec.svg

<svg xmlns="http://www.w3.org/2000/svg" width="1024" height="1024" fill="none">
   <g clip-path="url(#a)">
      <path fill="#FF837D" d="M512 1024c282.77 0 512-229.23 512-512S794.77 0 512 0 0 229.23 0 512s229.23 512 512 512Z"/>
      <path fill="#fff" d="M677 709.2c0 2.6.8 22.5-19.5 32.3-4.7 2.2-9.3 3.1-13.7 3.2.9-3.8 1.4-7.8 1.4-12V469.5c.1-2.5.3-19.1-7-34.6-9.1-19.3-21.9-28.9-33.2-35.9-10.9-6.7-186.1-114.8-195.8-120.8-1.8-1.3-7.1-4.9-14.7-7.1 3-4.7 7.6-9.2 14.9-12.3 19.6-8.5 36.1 4.5 36.1 4.5s184.9 114.1 196.2 121.1c11.3 6.9 21.7 15.5 29.3 31.6 6.8 14.3 6 30.1 6 30.1v263.1ZM475.6 445.4l-32.1-19.8v137.3l94.9 57.7v-37.2l-62.8-38.2v-99.8ZM347 314.5c0-5 .7-23.8 20.3-32.3 19.6-8.5 36.1 4.5 36.1 4.5s184.9 114.1 196.2 121.1c11.3 6.9 21.7 15.5 29.3 31.6 6.8 14.3 6 30.1 6 30.1v263.2c0 2.6.8 22.5-19.5 32.3-20.4 9.8-40.6-6-40.6-6S381.5 639.7 367.3 631c-14.1-8.7-15.2-13.2-18-18.8-1.6-3.2-2.1-9.2-2.3-13.5V314.5Zm86.3 254.1 115.1 70V478.4l-115.1-70.7v160.9Z"/>
   </g>
   <defs>
      <clipPath id="a">
         <path fill="#fff" d="M0 0h1024v1024H0z"/>
      </clipPath>
   </defs>
</svg>

<svg width="1024" height="1024" viewBox="0 0 1024 1024" fill="none" xmlns="http://www.w3.org/2000/svg">
<g clip-path="url(#clip0_2_3084)">
<path d="M512 1024C794.77 1024 1024 794.77 1024 512C1024 229.23 794.77 0 512 0C229.23 0 0 229.23 0 512C0 794.77 229.23 1024 512 1024Z" fill="#FF837D"/>
<path d="M677 709.2C677 711.8 677.8 731.7 657.5 741.5C652.8 743.7 648.2 744.6 643.8 744.7C644.7 740.9 645.2 736.9 645.2 732.7V469.5C645.3 467 645.5 450.4 638.2 434.9C629.1 415.6 616.3 406 605 399C594.1 392.3 418.9 284.2 409.2 278.2C407.4 276.9 402.1 273.3 394.5 271.1C397.5 266.4 402.1 261.9 409.4 258.8C429 250.3 445.5 263.3 445.5 263.3C445.5 263.3 630.4 377.4 641.7 384.4C653 391.3 663.4 399.9 671 416C677.8 430.3 677 446.1 677 446.1V709.2ZM475.6 445.4L443.5 425.6V562.9L538.4 620.6V583.4L475.6 545.2V445.4ZM347 314.5C347 309.5 347.7 290.7 367.3 282.2C386.9 273.7 403.4 286.7 403.4 286.7C403.4 286.7 588.3 400.8 599.6 407.8C610.9 414.7 621.3 423.3 628.9 439.4C635.7 453.7 634.9 469.5 634.9 469.5V732.7C634.9 735.3 635.7 755.2 615.4 765C595 774.8 574.8 759 574.8 759C574.8 759 381.5 639.7 367.3 631C353.2 622.3 352.1 617.8 349.3 612.2C347.7 609 347.2 603 347 598.7V314.5ZM433.3 568.6L548.4 638.6V478.4L433.3 407.7V568.6Z" fill="white"/>
</g>
<defs>
<clipPath id="clip0_2_3084">
<rect width="1024" height="1024" fill="white"/>
</clipPath>
</defs>
</svg>
